public/images/beraciaga/lightning.svg

<svg xmlns="http://www.w3.org/2000/svg" width="14" height="20" viewBox="0 0 14 20" fill="none">
  <path d="M4.47924 11.8855H2.06938C1.29195 11.8855 0.818434 11.093 1.06801 10.4083L4.47924 11.8855ZM4.47924 11.8855L3.11992 17.2528C3.11992 17.2528 3.11992 17.2528 3.11992 17.2528C2.98267 17.7947 3.24909 18.2694 3.64371 18.4891C4.04277 18.7113 4.59524 18.6811 4.96466 18.2411C4.96467 18.2411 4.96468 18.241 4.96469 18.241L13.1156 8.53267L4.47924 11.8855ZM4.10096 2.08666L1.06802 10.4083L13.1156 8.53265C13.6832 7.85665 13.2621 6.72465 12.3053 6.72465H9.71231L11.2126 2.87526C11.4808 2.1873 11.0083 1.375 10.2201 1.375H5.10213H5.10205C4.88026 1.37504 4.6658 1.44563 4.48716 1.57434C4.30884 1.70282 4.17542 1.88235 4.10096 2.08665C4.10096 2.08665 4.10096 2.08666 4.10096 2.08666Z" fill="#9CD1FF" stroke="#4B371F"/>
</svg>

<svg xmlns="http://www.w3.org/2000/svg" width="14" height="20" viewBox="0 0 14 20" fill="none"><path d="M4.48 11.886H2.07c-.778 0-1.252-.793-1.002-1.478l3.411 1.478zm0 0-1.36 5.367a1.09 1.09 0 0 0 .524 1.236c.399.222.951.192 1.32-.248l8.152-9.708-8.637 3.353zm-.379-9.8-3.033 8.322 12.048-1.875c.567-.676.146-1.808-.81-1.808H9.711l1.5-3.85c.269-.688-.204-1.5-.992-1.5H5.102c-.222 0-.436.07-.615.2a1.091 1.091 0 0 0-.386.512z" fill="#9CD1FF" stroke="#4B371F"/></svg>
